sharp/svg/confirmation_number.svg

<svg xmlns="http://www.w3.org/2000/svg" width="24" height="24"><path fill="none" d="M0 0h24v24H0z"/><g fill="currentColor"><path d="M22 10V4H2.01v6c1.1 0 1.99.9 1.99 2s-.89 2-2 2v6h20v-6c-1.1 0-2-.9-2-2s.9-2 2-2zm-9 7.5h-2v-2h2v2zm0-4.5h-2v-2h2v2zm0-4.5h-2v-2h2v2z"/></g></svg>

<?xml version="1.0" encoding="utf-8"?>
<!-- Generator: Adobe Illustrator 19.1.0, SVG Export Plug-In . SVG Version: 6.00 Build 0)  -->
<svg version="1.1" xmlns="http://www.w3.org/2000/svg" xmlns:xlink="http://www.w3.org/1999/xlink" x="0px" y="0px" width="24px"
	 height="24px" viewBox="0 0 24 24" enable-background="new 0 0 24 24" xml:space="preserve">
<g id="Bounding_Boxes">
	<g id="ui_x5F_spec_x5F_header_copy_2">
	</g>
	<rect fill="none" width="24" height="24"/>
</g>
<g id="Sharp" fill="currentColor">
	<path d="M22,10V4H2.01v6C3.11,10,4,10.9,4,12s-0.89,2-2,2v6h20v-6c-1.1,0-2-0.9-2-2S20.9,10,22,10z M13,17.5h-2v-2h2V17.5z M13,13
		h-2v-2h2V13z M13,8.5h-2v-2h2V8.5z"/>
</g>
</svg>
